packages/swarm-icons/src/icons/large/Meetup.svg

<svg xmlns="http://www.w3.org/2000/svg" width="28" height="28" viewBox="0 0 28 28">
  <path fill="#212121" d="M17.6680696,18.5595618 C17.6692128,20.1489331 18.761867,21.5533773 20.3111935,22.0307224 C21.0877035,22.2701751 21.8886608,22.3837427 22.7014901,22.4171642 C23.281806,22.4405675 23.8614184,22.4027117 24.3975884,22.1531586 C24.8191727,21.9565709 25.0178291,21.631881 24.9987461,21.1992074 C24.9796631,20.7637418 24.7708936,20.4379843 24.3247741,20.2647178 C24.1697359,20.2045262 24.0123234,20.1555846 23.8476997,20.1288145 C23.3556756,20.046944 22.861277,19.9778837 22.3716272,19.8871446 C21.5635467,19.7367887 21.224802,19.3374546 21.2140733,18.5745071 C21.2045758,17.8995889 21.4007698,17.2630192 21.6231701,16.6331831 C22.0298924,15.480427 22.57855,14.3817038 23.1039913,13.2740299 C23.6114929,12.2042939 24.1434419,11.1434266 24.5018852,10.0167836 C24.6993105,9.39811542 24.7934942,8.77772276 24.6140087,8.13786841 C24.3408671,7.16667265 23.7176365,6.51573252 22.642922,6.32850615 C21.6588737,6.15753891 20.679662,6.13807722 19.7897974,6.68604283 C19.4939673,6.86760315 19.2094815,6.82416334 18.9525209,6.61254827 C18.7563268,6.45159928 18.5696302,6.28120685 18.3775693,6.11582356 C17.4699408,5.33341439 16.2699998,5.29498371 15.2955369,6.00948226 C14.9025331,6.29795869 14.5715271,6.65549537 14.1444905,6.90611594 C13.762831,7.12996642 13.3781816,7.19344273 12.9553662,6.98289518 C12.5527769,6.78244799 12.1359415,6.60597892 11.7202492,6.43000255 C11.2991926,6.25238385 10.891239,6.03296767 10.4171546,5.99560451 C8.91786591,5.87645299 7.34875289,6.70846073 6.68735632,7.97314205 C6.39390061,8.53276825 6.15417623,9.11423754 5.92693933,9.69948419 C4.87790334,12.4049053 4.02330264,15.1681367 3.13889028,17.9220067 C2.74289656,19.154334 3.21038548,20.3671996 4.32801466,21.0327566 C5.19993954,21.5517349 6.15470387,21.6799193 7.14297334,21.4025286 C7.94384272,21.1775285 8.38222351,20.5756122 8.68878227,19.8994622 C9.70739103,17.6563588 10.624605,15.3753175 11.5955503,13.1143126 C11.8627119,12.4922776 12.1215193,11.8674507 12.4048619,11.2520671 C12.6911065,10.6306069 13.5135212,10.4189098 14.0014122,10.8310541 C14.2990011,11.0826601 14.3777074,11.4175325 14.3485113,11.7755619 C14.3163253,12.1581442 14.1576815,12.5111645 14.0085353,12.8625424 C13.3769504,14.3539483 12.7334936,15.8408378 12.0989187,17.331094 C11.9707022,17.6323807 11.8317571,17.9314502 11.7751237,18.2549084 C11.67795,18.8101824 11.9134533,19.3024728 12.4001131,19.4984857 C12.8963584,19.6984402 13.4115988,19.7318617 13.9262235,19.5575277 C14.5250068,19.3548633 14.8828346,18.9170985 15.1583505,18.4114231 C16.1054641,16.6744878 17.0453666,14.933611 17.9917766,13.1967579 C18.4289262,12.3943122 18.8738146,11.5957261 19.3205497,10.7982074 C19.4863165,10.5025047 19.6807518,10.2224042 19.9909161,10.0386267 C20.2706532,9.87324341 20.5723753,9.86092588 20.8592355,10.0113639 C21.1389725,10.1577782 21.1579676,10.4251506 21.1460957,10.6890741 C21.1395002,10.8310541 21.097201,10.9697495 21.038721,11.1017112 C20.9158688,11.3762278 20.801371,11.6546859 20.6653278,11.9237007 C19.8780891,13.4701249 19.0789786,15.0105545 18.298863,16.5603455 C17.9697916,17.2146524 17.6274413,17.8718334 17.6680696,18.5595618 Z"/>
</svg>

<svg xmlns="http://www.w3.org/2000/svg" width="28" height="28"><path fill="#212121" d="M17.668 18.56c.001 1.589 1.094 2.993 2.643 3.47.777.24 1.578.354 2.39.387.58.024 1.16-.014 1.697-.264.421-.196.62-.521.6-.954-.018-.435-.227-.761-.673-.934a2.366 2.366 0 00-.477-.136c-.492-.082-.987-.151-1.476-.242-.808-.15-1.147-.55-1.158-1.312-.01-.675.187-1.312.41-1.942.406-1.153.955-2.251 1.48-3.359.507-1.07 1.04-2.13 1.398-3.257.197-.619.291-1.24.112-1.88-.273-.97-.896-1.621-1.971-1.808-.984-.171-1.963-.19-2.853.357-.296.182-.58.138-.837-.073-.197-.161-.383-.332-.575-.497-.908-.783-2.108-.821-3.082-.107-.393.289-.724.646-1.152.897-.381.224-.766.287-1.189.077-.402-.2-.82-.377-1.235-.553-.42-.178-.829-.397-1.303-.434-1.5-.12-3.068.712-3.73 1.977-.293.56-.533 1.141-.76 1.726-1.05 2.706-1.904 5.47-2.788 8.223-.396 1.232.071 2.445 1.189 3.11a3.49 3.49 0 002.815.37c.8-.224 1.24-.826 1.546-1.503 1.018-2.243 1.936-4.524 2.907-6.785.267-.622.526-1.247.809-1.862.286-.621 1.109-.833 1.596-.42.298.25.377.586.348.944-.033.382-.191.735-.34 1.087-.632 1.49-1.276 2.978-1.91 4.468-.128.301-.267.6-.324.924-.097.555.138 1.047.625 1.243.496.2 1.012.234 1.526.06.599-.203.957-.64 1.232-1.147.947-1.737 1.887-3.477 2.834-5.214.437-.803.882-1.601 1.329-2.399.165-.295.36-.576.67-.76a.856.856 0 01.868-.027c.28.147.299.414.287.678-.006.142-.049.28-.107.413-.123.274-.238.553-.374.822-.787 1.546-1.586 3.087-2.366 4.636-.33.655-.672 1.312-.63 2z"/></svg>
